X: 32
T:Maggie in the 
R:Polka
Z:As played by the CHB
M:2/4
L:1/8
K:G
B/2A/2|GD GA|Be eg/2e/2|dB B/2A/2G/2A/2|BA AB/2A/2|
GD GA|Be eg/2e/2|dB AB/2A/2|G3:|
|:e/2f/2|gf ed|ef g>e|dB B/2A/2G/2A/2|
|[1 BA Ae/2f/2|gf ed|ef g>e|dB AB/2A/2|G3:|
|[2 BA AB/2A/2|GD GA|Be eg/2e/2|dB AB/2A/2|G3||
